X: 1
T: Dover Pier   [Bb]
O: Preston 24CD, 1791
B: Preston 24CD, 1791
B: Barnes v.1 p.29
%Q: 1/4=100
Z: 2006 John Chambers <jc:trillian.mit.edu>
M: 2/4
L: 1/16
K: Bb
c2 \
|"Bb"B2d2 D2F2 |"Eb(Cm)"E2C2- C2G2 |"Cm"c2e2 "(C7)"G2B2 |"F7"A2F2- F2A2 \
|"Bb"B2d2 "Eb"e2g2 |"Bb"f2d2 c2B2 |"F7"F2A2 c2e2 |"Bb"d2 B4 :|
|: f2 \
|"Bb"f2d2 c2d2 |"Eb"B2b2 a2g2 |"Bb"f2d2 c2B2 |"F7"A2c2 A2F2 "I"\
|"Eb"G2B2 "Bb/D"d2F2 |"Cm"E2G2 "(Gm)"c2D2 |"F7"C2F2 A2c2 |"Bb"d2 B4 :|
